assets/img/linkedin.svg

<?xml version="1.0" encoding="UTF-8" standalone="no"?>
<!DOCTYPE svg PUBLIC "-//W3C//DTD SVG 1.1//EN" "http://www.w3.org/Graphics/SVG/1.1/DTD/svg11.dtd">
<svg width="100%" height="100%" viewBox="0 0 274 277" version="1.1" xmlns="http://www.w3.org/2000/svg" xmlns:xlink="http://www.w3.org/1999/xlink" xml:space="preserve" xmlns:serif="http://www.serif.com/" style="fill-rule:evenodd;clip-rule:evenodd;stroke-linejoin:round;stroke-miterlimit:2;">
    <g id="Livello_2">
        <g id="Layer_1">
            <path d="M273.27,248.9C273.27,248.917 273.27,248.933 273.27,248.95C273.27,264.045 260.865,276.473 245.77,276.5L28,276.5C12.905,276.473 0.5,264.045 0.5,248.95C0.5,248.933 0.5,248.917 0.5,248.9L0.5,28.09C0.5,28.073 0.5,28.057 0.5,28.04C0.5,12.947 12.907,0.522 28,0.5L245.77,0.5C260.863,0.522 273.27,12.947 273.27,28.04C273.27,28.057 273.27,28.073 273.27,28.09L273.27,248.9Z" style="fill:rgb(179,83,95);fill-rule:nonzero;"/>
            <path d="M89.23,68C89.23,78.14 81.75,86.35 69.43,86.35C57.85,86.35 50.36,78.14 50.36,68C50.36,57.62 58.09,49.66 69.92,49.66C81.75,49.66 89,57.6 89.23,68ZM51.33,218.9L51.33,100.82L88,100.82L88,218.88L51.33,218.9Z" style="fill:white;fill-rule:nonzero;"/>
            <path d="M110,138.48C110,123.76 109.52,111.48 109,100.82L140.87,100.82L142.56,117.24L143.29,117.24C148.11,109.51 159.95,98.16 179.74,98.16C203.89,98.16 221.99,114.34 221.99,149.16L221.99,218.93L185.32,218.93L185.32,153.45C185.32,138.24 180,127.86 166.72,127.86C156.58,127.86 150.55,134.86 147.89,141.62C146.89,144.03 146.68,147.41 146.68,150.8L146.68,218.88L110,218.88L110,138.48Z" style="fill:rgb(254,255,255);fill-rule:nonzero;"/>
        </g>
    </g>
</svg>

<svg xmlns="http://www.w3.org/2000/svg" viewBox="0 0 273.77 277"><defs><style>.cls-1{fill:#b3535f;}.cls-1,.cls-2{stroke:#b3535f;}.cls-2{fill:#efeae4;}</style></defs><g id="Livello_2" data-name="Livello 2"><g id="Layer_1" data-name="Layer 1"><path class="cls-1" d="M273.27,248.9a27.55,27.55,0,0,1-27.5,27.6H28A27.55,27.55,0,0,1,.5,248.9V28.09A27.54,27.54,0,0,1,28,.5H245.77a27.54,27.54,0,0,1,27.5,27.59Z"/><path class="cls-2" d="M89.23,68c0,10.14-7.48,18.35-19.8,18.35-11.58,0-19.07-8.21-19.07-18.35,0-10.38,7.73-18.34,19.56-18.34S89,57.6,89.23,68Zm-37.9,150.9V100.82H88V218.88Z"/><path class="cls-2" d="M110,138.48c0-14.72-.48-27-1-37.66h31.87l1.69,16.42h.73c4.82-7.73,16.66-19.08,36.45-19.08,24.15,0,42.25,16.18,42.25,51v69.77H185.32V153.45c0-15.21-5.32-25.59-18.6-25.59-10.14,0-16.17,7-18.83,13.76-1,2.41-1.21,5.79-1.21,9.18v68.08H110Z"/></g></g></svg>
